X: 10923
T: AIR
C: Viotti
%R: air, march
B: W. Hamilton "Universal Tune-Book" Vol. 1 Glasgow 1844 p.92 #3
S: http://imslp.org/wiki/Hamilton's_Universal_Tune-Book_(Various)
Z: 2016 John Chambers <jc:trillian.mit.edu>
M: 2/4
L: 1/16
K: Bb
% - - - - - - - - - - - - - - - - - - - - - - - - -
|:\
(b2a2).g2.f2 | f6 d2 | f2e2c2A2 | (B4 F2)z2 |\
(b2a2).g2.f2 | f6 d2 | f2e2c2A2 | "^Fin."B8 H::\
c3c dcBc | d3d edcd | e3e fede | Hf3d ef"^D.C."ga |]
% - - - - - - - - - - - - - - - - - - - - - - - - -

%%sep 1 1 500
%%sep 1 1 500

